X: 12
T: The Road To Glountane
R: reel
M: 4/4
L: 1/8
K: Dmaj
|: E>DE>F A>GA>B | c>ee>c B>AF>A | a>fe>c A>Bc>A | e>cB>A F>GA>F |E>DE>F A>GA>B | c>ee>c B>AF>A | a>fe>c A>Bc>A |[1 e>cB>c A>BA>F :|[2 e>cB>c A2 f>c || |: e>de>f a2 a>f | e>cB>A F>AA>B | c>BB>A c>BB>A | c>B (3cBA F>AA>f | e>de>f a>ef>a | e>cB>A F>AA>B | c>BB>A c>BB>A |[1 c>eB>A A2- A>f :|[2 c>eB>c A>GA>F |]|: D>CD>E G>FG>A | B>dd>B A>GE>G | g>ed>B G>AB>G | d>BA>G E>FG>E | D>CD>E G>FG>A | B>dd>B A>GE>G | g>ed>B G>AB>G |[1 d>BA>B G>AG>E :|[2 d>BA>B G2 e>B |||: d>cd>e g2 g>e | d>BA>G E>GG>A | B>AA>G B>AA>G | B>A (3BAG E>GG>e | d>cd>e g>de>g | d>BA>G E>GG>A | B>AA>G B>AA>G |[1 B>dA>G G2- G>e :|[2 B>dA>B G>FG>E |][2 E>DE>F A>GA>B | c>ee>c B>AF>A | a>fe>c A>Bc>A | e>cB>c A4 |][2 D>CD>E G>FG>A | B>dd>B A>GE>G | g>ed>B G>AB>G | d>BA>B G4 |]


Tune 1615	Setting 15029

